X: 24627
T: Macallaí Helen
R: hornpipe
M: 4/4
K: Gmajor
|:dc|(3BcB AG BGD2|EFGB ecAG|~F3E DEFA|~G3B dBed|
(3BcB AG BGD2|EFGB ecAG|~F3E DEFA|1 ~G3F G2:|2 ~G3F G2 (3ABc||
|:dedc Bcd2|efed cde2|fgfe def2|~g3a bgdc|
(3BcB AG BGD2|EFGB ecAG|~F3E DEFA|1 ~G3F G2 (3ABc:|2 ~G3F G2||

